X:1
T:Title
%%score { ( 1 3 ) | ( 2 4 ) }
L:1/8
M:3/4
K:Db
V:1 treble nm="Grand Piano"
V:3 treble 
V:2 bass 
V:4 bass 
V:1
 z2 z2[Q:1/4=100] FF | [FA]3 [DF] [DF]2 | [FA]4 z A | d2 [Fc]3 [FB] | G4 z2 | [CG]2 [CE]2 [CE]F | %6
 [A,CG]4 .[CEG]2 | cB [CA]2 [Ec]2 | d4 DD | d4 [DB][DG] | A4 FD | [CG]2 [CA]2 [CB]2 | A4 z2 | %13
 d4 [DB][DG] | A4 FD[Q:1/4=97][Q:1/4=94][Q:1/4=91][Q:1/4=88][Q:1/4=84][Q:1/4=81][Q:1/4=78] | %15
 [CG]2 [CF]2 [CE]2 |[M:2/4] [A,D]4 |] %17
V:2
 z2 z2 [D,A,D][D,A,D] | [D,D]3 [D,A,] [D,A,]2 | [D,D]4 [D,D]2 | [A,F]2 [D,A,]3 [D,A,] | A,4 z2 | %5
 [E,A,]2 [A,,A,]2 z D | E,2 A,,2 z G | [E,A,]2 [A,,G,]2 [A,,G,]2 | [D,F,D]4 [D,_C][D,C] | %9
 [G,B,D]4 [G,,G,][B,,G,] | [D,F,D]4 [D,A,D][D,F,] | [A,,E,]2 [A,,F,]2 [A,,G,]2 | %12
 [F,D]2 A,2 [D,_C][D,C] | [G,B,D]4 [G,,G,][B,,G,] | [D,F,D]4 [D,A,D][D,F,] | %15
 [A,,E,]2 [A,,A,]2 [A,,G,]2 |[M:2/4] [D,F,]4 |] %17
V:3
 x6 | x6 | z2 z2 F2 | x6 | B2 A2 [CE][DF] | x6 | x6 | G2 z2 z2 | x6 | x6 | x6 | x6 | z2 F2 DD | %13
 x6 | x6 | x6 |[M:2/4] x4 |] %17
V:4
 x6 | x6 | x6 | x6 | E,2 A,,2 [A,,A,][A,,A,] | z2 z2 [A,,A,]2 | z2 z2 A,,2 | x6 | x6 | x6 | x6 | %11
 x6 | D,4 z2 | x6 | x6 | x6 |[M:2/4] x4 |] %17

